X:20
T:Grandma's Chickens
C:Andy De Jarlis
M:2/4
L:1/16
Z:abc by Bruce Osborne - bosborne@kos.net
K:D
 (3ABc|ddfd ccec|BABc B2AF|GGBG FFAF|EDEF E2 (3ABc|!
ddfd ccec|BABc BABc|d2fd gfec|d2 (3edc d2:|!
|:fg|abag f2fe|dfdf f2ed|cdef gecA|defg a2fg|!
abag f2fe|dfdf f2ed|cdef gece|d2 (3edc d2:|!
